src/lib/packages/icons/src/assets/filled/link.svg

<svg width="24" height="24" viewBox="0 0 24 24" fill="none" xmlns="http://www.w3.org/2000/svg">
<path d="M17.565 14.546C17.31 14.546 17.0551 14.449 16.8601 14.255C16.4681 13.866 16.466 13.232 16.856 12.841L18.824 10.863C19.584 10.111 20 9.104 20 8.024C20 6.944 19.5829 5.93301 18.8259 5.17601C17.2599 3.60801 14.7079 3.61001 13.1389 5.17601L11.1731 7.15202C10.7841 7.54302 10.152 7.54602 9.75905 7.15602C9.36705 6.76702 9.3649 6.13302 9.7549 5.74202L11.7229 3.76402C14.0719 1.41502 17.893 1.41501 20.24 3.76201C21.375 4.89601 22 6.41 22 8.024C22 9.643 21.3741 11.154 20.2361 12.28L18.2739 14.253C18.0789 14.448 17.822 14.546 17.565 14.546ZM12.2739 20.24L14.2529 18.272C14.6449 17.882 14.6471 17.249 14.2571 16.858C13.8671 16.467 13.235 16.464 12.843 16.854L10.8631 18.824C9.29405 20.392 6.74404 20.39 5.17604 18.824C3.60904 17.256 3.60909 14.706 5.17409 13.14L7.15309 11.172C7.54509 10.782 7.547 10.149 7.157 9.75801C6.767 9.36701 6.13493 9.36401 5.74293 9.75401L3.76295 11.724C1.41495 14.071 1.41495 17.89 3.76295 20.238C4.93795 21.412 6.47999 21.998 8.02199 21.998C9.56199 21.999 11.1029 21.413 12.2739 20.24ZM9.70705 15.707L15.7329 9.68202C16.1239 9.29102 16.1239 8.65802 15.7329 8.26802C15.3419 7.87802 14.7101 7.87802 14.3191 8.26802L8.29298 14.293C7.90198 14.684 7.90198 15.317 8.29298 15.707C8.48798 15.902 8.74401 16 9.00001 16C9.25601 16 9.51204 15.902 9.70705 15.707Z" fill="currentColor"/>
</svg>

<svg xmlns="http://www.w3.org/2000/svg" width="24" height="24" fill="none"><path fill="currentColor" d="M17.565 14.546a.999.999 0 0 1-.709-1.705l1.968-1.978A3.958 3.958 0 0 0 20 8.024c0-1.08-.417-2.091-1.174-2.848a4.028 4.028 0 0 0-5.687 0l-1.966 1.976a1 1 0 0 1-1.418-1.41l1.968-1.978a6.03 6.03 0 0 1 8.517-.002A5.982 5.982 0 0 1 22 8.024c0 1.619-.626 3.13-1.764 4.256l-1.962 1.973a1 1 0 0 1-.709.293Zm-5.291 5.694 1.979-1.968a.999.999 0 1 0-1.41-1.418l-1.98 1.97a4.028 4.028 0 0 1-5.687 0 4.026 4.026 0 0 1-.002-5.684l1.98-1.968a.999.999 0 1 0-1.411-1.418l-1.98 1.97a6.026 6.026 0 0 0 0 8.514 6.006 6.006 0 0 0 4.259 1.76 5.984 5.984 0 0 0 4.252-1.758Zm-2.567-4.533 6.026-6.025a.999.999 0 1 0-1.414-1.414l-6.026 6.025a.999.999 0 1 0 1.414 1.414Z"/></svg>
